X: 2724
T: Banks Of Lough Gowna, The
R: jig
M: 6/8
K: Dmajor
B2 B BAF|FEF DFA|ABB BAF|deg fdc|
B2 B BAF|FEF D2 A|def g2 g|fdB Bdc:|
|:def a2a|afb afe|def def|g2 g fdB|
def a2 a|afb afe|def gfg|fdB Bdc:|

